X:49
T:Cronin's Hornpipe 
B:CRE2.303 (CornphÃÂÃÂÃÂÃÂ­opa UÃÂÃÂÃÂÃÂ­ ChrÃÂÃÂÃÂÃÂ³inÃÂÃÂÃÂÃÂ­n)
F:file ID: cre.2/049cron_k
S:Seamus Ennis 
L:1/8
M:C
R:hornpipe
Q:150
K:G
BA|GABd dBde|g2ge dega|bage dBGB|BAAG AcBA|
GABd dBde|g2ge dega|bage dBAB|G2GF G2:|
fg|afdB dega|(3bag ed efga|(3bag (3agf gedc|BAAG A2BA|
GABd dBde|g2ge dega|bage dBAB|G2GF G2:|

%%%

